X: 0
T: The Mill House
C: John Martin
M: 4/4
L: 1/8
K: Amaj
AB|:"A"c2BA FEE2|A,B,CE F2AF|"D"EFAB cfec|cBBA B2AB|
"A"c2 BA FEE2|A,B,CE (3FED AF|"D"EFAB cfec|1"E"BABc AGAB:|2"E"~B3c ABcd||
|:"A"eAce a2ga|~f3a ecAF|"D"EFAB cfec|"E"cBBA ~B2cd|
[1"A"eAce a2ga|"Fm"f2af ecAF|"D"EFAB cfec|"E"~B3c ABcd:|
[2"A"cABA FEE2|A,B,CE FDAF|"D"EFAB cfec|"E"~B3c AGAB|]